static/images/toucan1.svg

<?xml version="1.0" encoding="UTF-8" standalone="no"?>
<svg width="133px" height="93px" viewBox="0 0 133 93" version="1.1" xmlns="http://www.w3.org/2000/svg" xmlns:xlink="http://www.w3.org/1999/xlink" xmlns:sketch="http://www.bohemiancoding.com/sketch/ns">
    <!-- Generator: Sketch 3.2.2 (9983) - http://www.bohemiancoding.com/sketch -->
    <title>toucan1</title>
    <desc>Created with Sketch.</desc>
    <defs>
        <path id="path-1" d="M3.139,0.45 L55.585,14.779 C56.136,14.913 56.465,15.478 56.31,16.024 L54.439,22.605 C54.287,23.141 53.724,23.449 53.19,23.289 L1.616,6.421 C1.105,6.268 0.805,5.741 0.933,5.223 L1.931,1.182 C2.063,0.646 2.604,0.319 3.139,0.45"></path>
        <path id="path-3" d="M58.474,20.25 C58.958,20.25 59.409,19.859 59.466,19.378 C59.876,15.932 60.253,1.271 44.125,0.956 C31.22,0.703 13.419,0.761 4.783,0.577 C4.65,0.574 4.354,1.152 4.104,0.87 C4.104,0.87 2.775,0.882 1.771,0.75 C1.032,0.653 0.577,1.146 0.8,1.857 L4.625,20.25"></path>
    </defs>
    <g id="Editor" stroke="none" stroke-width="1" fill="none" fill-rule="evenodd" sketch:type="MSPage">
        <g id="Start-from-Scratch-1" sketch:type="MSArtboardGroup" transform="translate(-93.000000, -197.000000)">
            <g id="toucan1" sketch:type="MSLayerGroup" transform="translate(93.000000, 197.000000)">
                <g id="Fill-1" transform="translate(73.000000, 23.000000)">
                    <mask id="mask-2" sketch:name="Fill 1" fill="white">
                        <use xlink:href="#path-1"></use>
                    </mask>
                    <use fill="#FD6E1E" sketch:type="MSShapeGroup" xlink:href="#path-1"></use>
                    <path d="M4,-1 L20.9599609,2.734375 L15.8632812,13.3349609 L4,13 L4,-1 Z" id="Rectangle-87" fill="#EDB81A" sketch:type="MSShapeGroup" mask="url(#mask-2)"></path>
                    <path d="M20.623291,3.30004883 L15.1862793,14.4711914 L33.5227051,22.3015137 L41.3393555,6.03393555 L20.623291,3.30004883 Z" id="Path-252" fill="#FFCE36" sketch:type="MSShapeGroup" mask="url(#mask-2)"></path>
                    <path d="M39.623291,9.30004883 L34.1862793,20.4711914 L52.5227051,28.3015137 L60.3393555,12.0339355 L39.623291,9.30004883 Z" id="Path-253" fill="#EDB81A" sketch:type="MSShapeGroup" mask="url(#mask-2)"></path>
                </g>
                <path d="M1.167,27.167 C1.167,62.841 33.401,63.327 33.401,63.327 L20.693,81.94 L30.871,86.591 L35.798,79.266 L34.247,87.992 L45.637,92.435 L46.635,72.278 C46.635,72.278 59.323,71.31 66.726,66.755 C73.053,62.862 79.162,56.545 78.951,41.007 C78.739,25.469 78.955,2.977 78.955,2.977 L74.138,0.778 C74.138,0.778 63.882,-0.507 55.102,3.235 C46.323,6.977 37.115,15.721 34.469,28.182 L3.282,13.102 C2.756,12.848 2.129,13.089 1.917,13.633" id="Fill-2" fill="#1C394B" sketch:type="MSShapeGroup"></path>
                <path d="M112.959,0.577 L79.625,0.577" id="Fill-3" fill="#FFFFFF" sketch:type="MSShapeGroup"></path>
                <g id="Fill-4-+-Rectangle-84" transform="translate(73.000000, 0.000000)">
                    <mask id="mask-4" sketch:name="Fill 4" fill="white">
                        <use xlink:href="#path-3"></use>
                    </mask>
                    <use id="Fill-4" fill="#FD6E1E" sketch:type="MSShapeGroup" xlink:href="#path-3"></use>
                    <rect id="Rectangle-84" fill="#EEB91A" sketch:type="MSShapeGroup" mask="url(#mask-4)" x="4" y="-2" width="18" height="24"></rect>
                    <rect id="Rectangle-85" fill="#FFCE36" sketch:type="MSShapeGroup" mask="url(#mask-4)" x="22" y="-2" width="18" height="24"></rect>
                    <rect id="Rectangle-86" fill="#EDB81A" sketch:type="MSShapeGroup" mask="url(#mask-4)" x="40" y="-2" width="20" height="24"></rect>
                </g>
                <path d="M74.138,0.778 C74.138,0.778 63.882,-0.507 55.102,3.235 C46.323,6.977 37.115,15.721 34.469,28.182 L3.282,13.102 C2.756,12.848 1.93026172,13.4989688 1.71826172,14.0429688 L1.11230469,26.8203125 C1.11230469,30.3953125 1.33596875,33.6839141 1.91796875,36.5869141 C2.32996875,38.2039141 3.25803125,41.1244922 3.70703125,42.7294922 C10.4940313,62.6024922 30.441,63.189 33.098,63.315 C66.147,48.653 61.667,17.333 61.667,17.333 L76.667,7.667 C74.114,9.76 76.5,3.167 76.5,3.167 L74.138,0.778 L76.3085938,18.6357422" id="Fill-5" fill="#375365" sketch:type="MSShapeGroup"></path>
                <path d="M77.783,0.577 L72.573,0.638 C72.495,0.639 72.424,0.647 72.348,0.666 C70.935,1.025 56.333,5.096 56.333,20.083 C56.333,37.265 73.709,37.254 77.97,36.993 C78.497,36.96 79.252,36.216 79.25,35.688 L78.795,1.574 C78.793,1.018 78.339,0.57 77.783,0.577" id="Fill-6" fill="#FFCE36" sketch:type="MSShapeGroup"></path>
                <path d="M74.41,15.667 C74.41,10.009 69.824,5.423 64.167,5.423 C58.509,5.423 53.923,10.009 53.923,15.667 C53.923,20 55.667,25.91 64.167,25.91 C72.333,25.91 74.41,19.833 74.41,15.667" id="Fill-7" fill="#FFFFFF" sketch:type="MSShapeGroup"></path>
                <path d="M71,12.5 C71,9.831 68.836,7.667 66.167,7.667 C63.497,7.667 61.333,9.831 61.333,12.5 C61.333,15.169 63.497,17.333 66.167,17.333 C68.836,17.333 71,15.169 71,12.5 L67.2480469,14.0136719" id="Fill-8" fill="#4A4A4A" sketch:type="MSShapeGroup"></path>
                <path d="M34.6601563,28.1845703 L1.95263672,12.4306641 C1.95263672,12.4306641 -9.22314453,60.3208008 33.3071289,63.3422852 C33.8911133,30.2836914 34.6601563,28.1845703 34.6601563,28.1845703 Z" id="Path-1559" fill="#375365" sketch:type="MSShapeGroup"></path>
            </g>
        </g>
    </g>
</svg>

<svg width="133" height="93" viewBox="0 0 133 93" xmlns="http://www.w3.org/2000/svg" xmlns:xlink="http://www.w3.org/1999/xlink"><title>toucan1</title><desc>Created with Sketch.</desc><defs><path id="a" d="M3.14.45l52.445 14.33c.55.133.88.698.725 1.244l-1.87 6.58c-.153.537-.716.845-1.25.685L1.616 6.42c-.51-.152-.81-.68-.683-1.197l.998-4.04C2.065.645 2.606.318 3.14.45"/><path id="c" d="M58.474 20.25c.484 0 .935-.39.992-.872.41-3.446.787-18.107-15.34-18.422C31.22.703 13.418.76 4.782.576c-.133-.002-.43.576-.68.294 0 0-1.328.012-2.332-.12C1.033.653.578 1.146.8 1.857L4.625 20.25"/></defs><g fill="none" fill-rule="evenodd"><g transform="translate(73 23)"><mask id="b"><use xlink:href="#a"/></mask><use fill="#FD6E1E" xlink:href="#a"/><path d="M4-1l16.96 3.734-5.097 10.6L4 13V-1z" fill="#EDB81A" mask="url(#b)"/><path d="M20.623 3.3l-5.437 11.17 18.337 7.832L41.34 6.034 20.622 3.3z" fill="#FFCE36" mask="url(#b)"/><path d="M39.623 9.3l-5.437 11.17 18.337 7.832 7.816-16.268L39.62 9.3z" fill="#EDB81A" mask="url(#b)"/></g><path d="M1.167 27.167c0 35.674 32.234 36.16 32.234 36.16L20.695 81.94l10.178 4.65 4.928-7.324-1.55 8.726 11.39 4.443.997-20.157s12.688-.968 20.09-5.523c6.328-3.893 12.437-10.21 12.226-25.748-.21-15.538.005-38.03.005-38.03L74.14.777S63.883-.506 55.103 3.237C46.322 6.976 37.115 15.72 34.47 28.18L3.28 13.102c-.526-.254-1.153-.013-1.365.53" fill="#1C394B"/><path d="M112.96.577H79.624" fill="#fff"/><g transform="translate(73)"><mask id="d"><use xlink:href="#c"/></mask><use fill="#FD6E1E" xlink:href="#c"/><path fill="#EEB91A" mask="url(#d)" d="M4-2h18v24H4z"/><path fill="#FFCE36" mask="url(#d)" d="M22-2h18v24H22z"/><path fill="#EDB81A" mask="url(#d)" d="M40-2h20v24H40z"/></g><path d="M74.138.778S63.882-.507 55.102 3.235C46.322 6.977 37.115 15.72 34.47 28.182L3.28 13.102c-.526-.254-1.352.397-1.564.94L1.112 26.82c0 3.575.224 6.864.806 9.767.412 1.617 1.34 4.537 1.79 6.142 6.785 19.87 26.732 20.46 29.39 20.584 33.05-14.662 28.57-45.982 28.57-45.982l15-9.666c-2.555 2.093-.17-4.5-.17-4.5L74.14.776l2.17 17.86" fill="#375365"/><path d="M77.783.577l-5.21.06c-.078.002-.15.01-.225.03-1.413.358-16.015 4.43-16.015 19.416 0 17.182 17.376 17.17 21.637 16.91.527-.033 1.282-.777 1.28-1.305l-.455-34.114c-.002-.556-.456-1.004-1.012-.997" fill="#FFCE36"/><path d="M74.41 15.667c0-5.658-4.586-10.244-10.243-10.244-5.658 0-10.244 4.586-10.244 10.244 0 4.333 1.744 10.243 10.244 10.243 8.166 0 10.243-6.077 10.243-10.243" fill="#fff"/><path d="M71 12.5c0-2.67-2.164-4.833-4.833-4.833-2.67 0-4.834 2.164-4.834 4.833 0 2.67 2.164 4.833 4.834 4.833 2.67 0 4.833-2.164 4.833-4.833l-3.752 1.514" fill="#4A4A4A"/><path d="M34.66 28.185L1.953 12.43S-9.223 60.32 33.307 63.343c.584-33.058 1.353-35.157 1.353-35.157z" fill="#375365"/></g></svg>
